symbols/web/play_disabled/materialsymbolsoutlined/play_disabled_wght100grad200_40px.svg

<svg xmlns="http://www.w3.org/2000/svg" height="40" width="40"><path d="m25.542 21.958-1-.916 2.083-1.292-8-4.625-2.667-2.667v-.583l12.75 8.083Zm4.541 11.375-8.708-8.666-6.542 4.125V18.167L6.292 9.625l1.25-1.25 23.708 23.75ZM16.542 20.042Zm0 5.541L20 23.417l-3.458-3.375Zm2.083-10.458Z"/></svg>

<svg xmlns="http://www.w3.org/2000/svg" height="40" width="40"><path d="M25.542 21.958 24.542 21.042 26.625 19.75 18.625 15.125 15.958 12.458V11.875L28.708 19.958ZM30.083 33.333 21.375 24.667 14.833 28.792V18.167L6.292 9.625L7.542 8.375L31.25 32.125ZM16.542 20.042ZM16.542 25.583 20 23.417 16.542 20.042ZM18.625 15.125Z"/></svg>
